!!!ONB: MCCC : ICS0080_06 : Extracted Monophonic Melody
!!!COM: Saint-Saëns, Camille
!!!OPR: 6 Etudes
!!!OMV: 6
!!!SCT: Op.111
!!!ODT: 1892///
**kern
*staff1
*clefG2
*k[b-]
*F:
*M2/4
4.c
=2
8r
4.d
=3
8r
4.g
=4
8r
4.b-
=5
8r
4.cc
=6
8r
4.dd
=7
8r
4.gg
=8
8r
4.bb-
=9
8r
8d
12e
12f
12g
=10
12a
12b-
12cc
12dd
12ee
12ff
=11
12gg
12aa
12bb-
16ccc
16ddd
16eee
16fff
=12
*M5/8
16ggg
16aaa
16bbb-
16cccc
8dddd
8ee
8r
=13
*M2/4
8r
16cccc
16fff
16ddd
16ccc
16aaa
16ccc
=14
16aa
16ff
16ccc
16ff
16dd
16cc
16aa
16a
=15
16r
16e
16dd
16e
16dd
16e-
16dd
16ee-
=16
16ddd
16ee
16ddd
16eee
16dddd
16eee
16dddd
16cccc
=17
8r
16cccc
16fff
16ddd
16ccc
16aaa
16ccc
=18
16aa
16ff
16ccc
16ff
16dd
16cc
16aa
16a
=19
16r
16e
16dd
16e
16dd
16e-
16dd
16ee-
=20
16ddd
16ee
16ddd
16eee
16dddd
16eee
16dddd
16cccc
=21
8r
16eeee
16aaa
16fff
16eee
16cccc
16eee
=22
16ddd
16ccc
16aaa
16ccc
16bb
16aa
16eee
16aa
=23
16ff
16ee
16ccc
16ee
16dd
16cc
16aa
16cc
=24
16b
16a
16ee
16a
16f
16e
16cc
16e
=25
16d
16c
16a
16c
16B
16A
16e
16A
=26
16F#
16E
16c
16E
16D
16C
16A
16C
=27
8r
32E
32A
32c
32e
8r
32e
32a
32cc
32ee
=28
*M5/8
8r
32e-
32a
32b
32ee-
8r
32ff#
32aa
32bb
32fff#
8r
=29
*M2/4
8r
16bbb
16eee
16ccc
16bb
16ggg
16bb
=30
16gg
16ee
16bb
16ee
16cc
16b
16gg
16g
=31
16r
16e-
16cc
16e-
16cc
16d
16cc
16dd
=32
16ccc
16ee-
16ccc
16eee-
16cccc
16eee-
16cccc
16bbb
=33
8r
16bbb
16eee
16ccc
16bb
16ggg
16bb
=34
16bb
16gg
16ddd
16gg
16ee
16dd
16bb
16b
=35
16r
16f#
16ee
16f#
16ee
16f
16ee
16ff
=36
16eee
16ff#
16eee
16fff#
16eeee
16fff#
16eeee
16dddd
=37
8r
16bbb
16ddd
16ccc
16bb
16ggg
16bb
=38
16aa
16gg
16ddd
16gg
16ee
16dd
16bb
16b
=39
8r
16bbb
16ddd
16ccc
16bb
16ggg
16bb
=40
16aa
16gg
16ddd
16dd
16cc
16b
16gg
16g
=41
8r
16dddd
16aaa-
16eee
16ddd
16bbb
16bb
=42
16aa
16aa-
16ddd
16dd
16ee
16dd
16bb
16b
=43
8r
32dd
32aa-
32bb
32ddd
8r
32dd
32gg
32bb-
32ddd
=44
8r
32d
32e
32g
32dd
8r
32c#
32e
32g
32cc#
=45
2r
=46
2r
=47
4r
8r
16r
16aa
=48
4aa
4r
=49
2r
=50
2r
=51
4r
8r
16r
16ddd
=52
4ddd
4r
=53
2r
=54
2r
=55
4r
8r
16r
16bb-
=56
4bb-
4r
=57
2r
=58
2r
=59
4r
8r
16r
16fff
=60
4fff
4r
=61
2r
=62
2r
=63
4r
16e-
16b-
16ee-
16bbb-
=64
16bbb-
16ee-
16b-
16e-
4r
=65
2r
=66
2r
=67
4r
16e-
16b-
16ff#
16eeee-
=68
16eeee-
16ff#
16b-
16e-
4r
=69
2r
=70
2r
=71
4r
16f#
16b
16ff#
16bbb
=72
16bbb
16ff#
16b
16f#
4r
=73
2r
=74
2r
=75
4r
16b
16ff#
16bb
16ffff#
=76
16bbbb
16bb
16ff#
16b
4r
=77
4r
16e
16b
16ee
16bbb
=78
16bbb
16ee
16b
16e
4r
=79
4r
16g
16cc
16gg
16cccc
=80
16cccc
16gg
16cc
16g
4r
=81
4r
16a
16cc
16ff#
16aaa
=82
16aaa
16ff#
16cc
16a
4r
=83
4r
16b
16dd
16ff#
16bbb
=84
16bbb
16ff#
16dd
16b
4r
=85
4r
16g
16b
16ee
16ggg
=86
16ggg
16ee
16b
16g
4r
=87
4r
16a
16cc
16ee
16aaa
=88
16aaa
16ee
16cc
16a
4r
=89
4r
16g
16b-
16ee
16bbb-
=90
16bbb-
16ee
16b-
16g
4r
=91
4r
16a-
16cc
16ff
16aaa-
=92
16aaa-
16ff
16cc
16a-
4r
=93
4r
16a-
16ee-
16ff#
16eeee-
=94
16eeee-
16ff#
16ee-
16a-
4r
=95
4r
16a
16ff#
16aa
16ffff#
=96
16ffff#
16aa
16ff#
16a
4r
=97
4r
16b-
16ff#
16bb-
16ffff#
=98
16ffff#
16bb
16ff#
16b
4r
=99
4r
16cc
16aa
16ccc
16ffff#
=100
16ffff#
16ccc
16aa
16cc
4r
=101
4r
16cc
16aa
16ccc
16ffff#
=102
16ffff#
16ccc
16aa
16cc
4r
=103
4r
16a
16cc
16ff#
16aaa
=104
16aaa
16ff#
16cc
16a
4r
=105
4r
16a
16cc
16ff#
16fff#
=106
16fff#
16ff#
16cc
16a
4r
=107
16g
16gg
16ggg
16gg
16a
16aa
16aaa
16aa
=108
16b
16bb
16bb
16bbb
16bb
16bb
16a
16aaa
=109
16g
16gg
16ggg
16gg
16f#
16fff#
16e
16eee
=110
16d
16dd
16ddd
16dd
16e
16ee
16eee
16ee
=111
16r
16ff#
16f#
16b
16ff#
16ff#
16bb
16fff#
=112
16r
16ff#
16f#
16b
16ff#
16ff#
16bb
16fff#
=113
16r
16ff#
16f#
16b
16ff#
16ff#
16bb
16fff#
=114
16r
16ff#
16f#
16b
16ff#
16ff#
16bb
16fff#
=115
16e
16ee
16eee
16ee
16f#
16ff#
16fff#
16ff#
=116
16g
16gg
16gg
16ggg
16gg
16gg
16f#
16fff#
=117
16e
16ee
16eee
16ee
16d
16ddd
16c
16ccc
=118
16G
16g
16gg
16g
16A
16a
16aa
16a
=119
16r
16bb
16b
16dd
16bb
16bb
16ddd
16bbb
=120
16r
16bb
16b
16dd
16bb
16bb
16ddd
16bbb
=121
16r
16bb
16b
16dd
16bb
16bb
16ddd
16bbb
=122
*M5/8
16r
16bb
16b
16dd
16bb
16bb
16ddd
16bbb
8r
=123
*M2/4
4ccc
4ddd
=124
4eee-
8ddd
8ccc
=125
4.bb-
8aa
=126
8gg
8bb-
8ccc
8ddd
=127
4eee-
4fff
=128
4ggg
8fff
8eee-
=129
4.ddd
8ccc
=130
8bb-
8ddd
8eee-
8fff
=131
16r
16ddd
16dd
16gg
16ddd
16gg
16ddd
16ggg
=132
16ggg
16gggg
16ggg
16ggg
16ddd
16gg
16ddd
16dd
=133
16r
16bb-
16b-
16ff
16bb-
16ff
16bb-
16fff
=134
16fff
16ffff
16fff
16fff
16bb-
16ff
16bb-
16dd
=135
16r
16ddd
16dd
16gg
16ddd
16gg
16ddd
16ggg
=136
16ggg
16gggg
16ggg
16ggg
16ddd
16gg
16ddd
16dd
=137
16r
16bb-
16b-
16ff
16bb-
16ff
16bb-
16fff
=138
16fff
16ffff
16fff
16fff
16bb-
16ff
16bb-
16dd
=139
16f#
16F#
16A
16d
16f#
16a
16dd
16aaa
=140
16aaa
16dd
16a
16f#
16d
16A
16F#
16f#
=141
16g
16G
16B-
16d
16g
16b-
16dd
16ggg
=142
16ggg
16dd
16b-
16g
16d
16B-
16G
16g
=143
16g
16G
16B-
16e-
16g
16b-
16ee-
16bbb-
=144
16bbb-
16ee-
16b-
16g
16e-
16B-
16G
16g
=145
16a-
16A-
16B
16e-
16a-
16b
16ee-
16aaa-
=146
16aaa-
16ee-
16b
16a-
16e-
16B
16A-
16a-
=147
16a-
16A-
16B
16e
16a-
16b
16ee
16bbb
=148
16bbb
16ee
16b
16a-
16e
16B
16A-
16a-
=149
16a
16A
16c
16e
16a
16cc
16ee
16aaa
=150
16aaa
16ee
16cc
16a
16e
16c
16A
16a
=151
16g
16B-
16e
16g
16b-
16ee
16gg
16bbb-
=152
16bbb-
16gg
16ee
16b-
16g
16e
16B-
16g
=153
16f
16A-
16c
16f
16a-
16cc
16ff
16aaa-
=154
16aaa-
16ff
16cc
16a-
16f
16c
16A-
16a-
=155
16f#
16F#
16c
16e-
16f#
16cc
16ee-
16cccc
=156
16cccc
16ee-
16cc
16f#
16e-
16c
16F#
16f#
=157
16f
16F
16c
16f
16cc
16ff
16ccc
16ffff
=158
16ffff
16ccc
16ff
16cc
16f
16c
16F
16f
=159
16f
16c
16F
16c
16f
16cc
16ff
16cccc
=160
16cccc
16ff
16cc
16f
16c
16F
16c
16f
=161
16e-
16c
16E-
16c
16e-
16cc
16ee-
16cccc
=162
16cccc
16ee-
16cc
16e-
16c
16E-
16c
16e-
=163
16c#
16C#
16F
16A-
16c#
16f
16a-
16ccc
=164
16ccc
16a-
16f
16c#
16A-
16F
16C#
16c#
=165
16c
16C
16E-
16A-
16c
16e-
16a-
16ccc
=166
16ccc
16a-
16e-
16c
4r
=167
4r
16B
16f
16b
16ccc
=168
16ccc
16b
16f
16B
4r
=169
2r
=170
2r
=171
2r
=172
2r
=173
2r
=174
2r
=175
16r
8f
16g
16r
8a
16ee
=176
16r
8a-
16b-
16r
8b-
16cc
=177
16r
8b
16cc#
16r
8ee-
16gg
=178
16r
8ff
16gg
16r
8aa
16eee
=179
16r
8aa-
16bb-
16r
8ccc
16ggg
=180
16r
8bb
16ccc#
16r
8eee-
16bbb-
=181
16ee
16ff
16ff#
16ggg
16dd
16ee-
16ee
16fff
=182
16cc
16dd
16ee-
16eee
16b-
16cc
16cc#
16ddd
=183
16a
16b-
16b
16ccc
16g
16a-
16a
16bb-
=184
16d
16e-
16e
16ff
16e
16f
16f#
16gg
=185
8r
16cccc
16fff
16ddd
16ccc
16aaa
16ccc
=186
16aa
16ff
16ccc
16ff
16dd
16cc
16aa
16a
=187
16r
16e
16dd
16e
16dd
16e-
16dd
16ee-
=188
16ddd
16ee
16ddd
16eee
16dddd
16eee
16dddd
16cccc
=189
8r
16cccc
16fff
16ccc#
16ccc
16aaa-
16ccc
=190
16aa-
16ff
16ccc
16cc
16b-
16a-
16ff
16f
=191
16r
16e
16cc#
16e
16cc#
16e-
16cc#
16ee-
=192
16ccc#
16ee
16ccc#
16eee
16cccc#
16eee
16cccc#
16cccc
=193
8r
16cccc
16fff
16ccc#
16ccc
16aaa-
16aa-
=194
16gg
16ff
16ccc
16cc
16b-
16a-
16ff
16f
=195
8r
16ffff
16aaa-
16ggg
16fff
16cccc
16ccc
=196
16bb-
16aa-
16fff
16ff
16gg
16ff
16ccc
16cc
=197
8r
16aaa-
16ccc
16bb-
16aa-
16fff
16ff
=198
16gg
16ff
16ccc
16cc
16dd
16cc
16aa-
16a-
=199
8r
32c
32e-
32a-
32cc
8r
32e-
32a-
32cc
32ee-
=200
8r
32e-
32g
32b-
32ee-
8r
32d
32f
32a-
32dd
=201
16r
16eee-
16eeee-
16eee-
16r
16fff
16ffff
16fff
=202
16r
16ggg
16gggg
16ggg
16ggg
8gg
16ffff
=203
16r
16eee-
16eeee-
16eee-
16r
8dddd
16cccc
=204
16r
16bb-
16bbb-
16bb-
16r
16ccc
16cccc
16ccc
=205
16r
16ddd
16dd
16gg
16ddd
16ddd
16ggg
16dddd
=206
16r
16ddd
16dd
16gg
16ddd
16ddd
16ggg
16dddd
=207
16r
16ddd
16dd
16gg
16ddd
16ddd
16ggg
16dddd
=208
16r
16ddd
16dd
16gg
16ddd
16ddd
16ggg
16dddd
=209
16r
16ccc
16cccc
16ccc
16r
16ddd
16dddd
16ddd
=210
16r
16eee-
16eeee-
16eee-
16eee-
8ee-
16dddd
=211
16r
16ccc
16cccc
16ccc
16r
8bbb-
16aaa-
=212
16r
16ee-
16eee-
16ee-
16r
16ff
16fff
16ff
=213
16r
16gg
16dd
16gg
16ddd
16ggg
16dddd
16gggg
=214
16r
16gg
16dd
16gg
16ddd
16ggg
16dddd
16gggg
=215
16r
16gg
16dd
16gg
16ddd
16ggg
16dddd
16gggg
=216
*M5/8
16r
16gg
16dd
16gg
16ddd
16ggg
16dddd
16gggg
8r
=217
*M2/4
4aa-
4bb-
=218
4ccc
8bb-
8aa-
=219
4.gg
8ff
=220
8ee-
8gg
8aa-
8bb-
=221
4ccc
4ddd
=222
4eee-
8ddd
8ccc
=223
4.bb-
8aa
=224
8gg
8bb-
8ccc
8ddd
=225
16r
16bb-
16b-
16ee-
16bb-
16ee-
16bb-
16eee-
=226
16eee-
16eeee-
16eee-
16eee-
16bb-
16ee-
16bb-
16b-
=227
16r
16ddd
16dd
16gg
16ddd
16gg
16ddd
16ggg
=228
16ggg
16gggg
16ggg
16ggg
16ddd
16gg
16ddd
16dd
=229
16r
16bb-
16b-
16ee
16bb-
16ee
16bb-
16eee
=230
16eee
16eeee
16eee
16eee
16bb-
16ee
16bb-
16b-
=231
16r
16ddd
16dd
16gg
16ddd
16gg
16ddd
16ggg
=232
16ggg
16gggg
16ggg
16ggg
16ddd
16gg
16ddd
16dd
=233
16ee
16eee
16gg
16eee
16bb-
16eee
16gg
16eee
=234
16ee
16eee
16gg
16eee
16bb-
16eee
16gg
16eee
=235
16ee
16eee
16gg
16eee
16bb-
16eee
16gg
16eee
=236
16ee
16eee
16gg
16eee
16bb-
16eee
16gg
16eee
=237
16ee
16eee
16gg
16eee
16bb-
16eee
16gg
16eee
=238
16dd
16ddd
16ff
16ddd
16aa
16ddd
16ee
16ddd
=239
16cc
16ccc
16ee
16ccc
16gg
16ccc
16dd
16ccc
=240
16b
16bb
16dd
16bb
16ff
16bb
16cc
16bb
=241
16a
16aa
16cc
16aa
16ee
16aa
16b
16aa
=242
16g
16gg
16b
16gg
16dd
16gg
16a
16gg
=243
16f
16ff
16a
16ff
16cc
16ff
16g
16ff
=244
16e
16ee
16g
16ee
16b-
16ee
16f
16ee
=245
16d
16dd
16f
16dd
16a
16dd
16e
16dd
=246
16c
16cc
16e
16cc
16g
16cc
16d
16cc
=247
16B-
16b-
16d
16b-
16f
16b-
16d
16b-
=248
16B-
16b-
16d
16b-
16f
16b-
16d
16b-
=249
16B-
16b-
16d
16b-
16f
16b-
16d
16b-
=250
16B-
16b-
16d
16b-
16f
16b-
16d
16b-
=251
16d
16b-
16B-
16b-
16B-
16b-
16c
16b-
=252
*M5/8
16d
16b-
16e
16b-
16f#
16b-
16a-
16b-
8r
=253
*M2/4
4bb-
4ccc
=254
4ddd
8ccc
8bb-
=255
4.aa
8gg
=256
8ff
8aa
8bb-
8bb
=257
4ccc
4ddd
=258
4eee-
8ddd
8ccc
=259
4.bb-
8aa
=260
8gg
8aa
8bb-
8ddd
=261
4fff
4ddd
=262
4ccc
4bb-
=263
4.aa
8gg
=264
8ff
8aa
8ddd
8fff
=265
4aaa
4fff
=266
4eee
4ddd
=267
4.ccc
8bb-
=268
8aa
8ddd
8fff
8aaa
=269
4.cccc
8aaa
=270
8fff
8ddd
8fff
8aaa
=271
4.cccc
8aaa
=272
8fff
8ddd
8fff
8aaa
=273
8eeee
8cccc
8aaa
8fff
=274
8ggg
8aaa
8cccc
8eeee
=275
8ffff
8dddd
8bbb
8ggg
=276
8aaa
8bbb
12cccc
12dddd
12eeee
=277
16ffff
16fff
16fff
16ff
16r
16gg
16ggg
16gg
=278
16r
16aa
16aa
16aaa
16aa
8aa
16ggg
=279
16r
16ff
16fff
16ff
16r
8eee
16ddd
=280
16r
16cc
16ccc
16cc
16r
16dd
16ddd
16dd
=281
16r
16eee-
16ee-
16aa
16eee-
16eee-
16aaa
16eeee-
=282
16r
16eee-
16ee-
16aa
16eee-
16eee-
16aaa
16eeee-
=283
16r
16ee-
16e-
16a-
16ee-
16ee-
16aa-
16eee-
=284
16r
16e-
16E-
16A-
16e-
16e-
16a-
16ee-
=285
4r
16B-
16e
16g
16eee
=286
16eee
16g
16e
16B-
4r
=287
4r
16e
16g
16b-
16ggg
=288
16ggg
16b-
16g
16e
4r
=289
4r
16g
16b-
16ee
16bbb-
=290
16bbb-
16ee
16b-
16g
4r
=291
4r
16b-
16ee
16gg
16eeee
=292
4eeee
4ee
=293
2r
=294
2r
=295
16r
8d
16f
16r
8a-
16cc
=296
16r
8d
16e
16r
8f#
16cc
=297
16r
8f#
16a-
16r
8b-
16cc
=298
16r
8b-
16cc
16r
8cc
16dd
=299
16r
8dd
16ff
16r
8aa-
16ccc
=300
16r
8dd
16ee
16r
8ff#
16ccc
=301
16f
16ff#
16g
16aa-
16a
16bb-
16b
16ddd
=302
16cc
16ccc#
16dd
16eee-
16ee
16fff
16ff#
16ggg
=303
16ff
16fff#
16gg
16aaa-
16aa
16bbb-
16bb
16dddd
=304
16ccc
16cccc#
16ddd
16eeee-
16eee
16ffff
16fff#
16gggg
=305
4ffff
4ff
=306
4fff
4aaa
=307
4cc
4ff
=308
4fff
4ffff
=309
4cc
4aa
=310
4aaa
4aaaa
=311
4cc
4f
=312
4ff
4fff
=313
4fff
4r
=314
4aa
4r
=315
4aa
4r
=316
4aa
4r
=317
[2f
=318
2f]
==
*-
